X:142
T:Morpeth Rant. Le4.142
M:C|
L:1/8
Q:1/4=130
B:L.Leadley MS#4 c1850
Z:Village Music Project, 2016 Ruairidh Greig
K:Bb
FG/A/|B2FE DB,DF|GEGB BFAc|dBec fdcB|G2c2c2BA|
B2FE DB,DF|GEGB AFAc|Bbag fedc|B2B2B2:|
|:ga|bfdB Aceg|fdcB BAGF|ecec dBdB|A2F2F2_A2|
GEGB edcB|AFAc fedc|Bbag fedc|d2B2B2:|

